svg/u1f694.svg

<svg viewBox="0 0 128 128" xmlns="http://www.w3.org/2000/svg">
  <path d="M27.44,102.2l-14.63-2.02c0,0-0.09,18.68-0.18,20.43c-0.09,1.75,0.92,3.02,2.39,3.13 c2.58,0.18,7.45,0.18,9.2,0.09c1.75-0.09,2.94-1.38,3.04-3.04s0-11.59,0-11.59L27.44,102.2z" fill="#4E433D"/>
  <path d="M97.92,108.45c0,0-0.09,10.67-0.09,12.79s1.2,3.22,2.58,3.13c1.38-0.09,8.01,0,9.48,0 c1.47,0,3.13-1.38,3.13-3.4s0.28-20.06,0.28-20.06L97.92,108.45z" fill="#4E433D"/>
  <path d="M19.61,55.86l-3.34,0.21c0,0,0.1-3.27-0.13-4.45s-1.65-1.88-2.71-1.94 c-1.06-0.06-6.01-0.06-7.42,0.12c-1.41,0.18-3.83,1.59-3.77,5.18c0.06,3.59,2.36,5.59,4.3,5.54s6.64,0.1,8.07,0.06 c1.83-0.06,5.83,0.12,5.83,0.12L19.61,55.86z" fill="#474C4F"/>
  <path d="M109.35,56.36l3.01,0.08c0,0,0.07-3.62,0.48-4.74c0.41-1.12,1.24-1.72,3.12-1.72s5.57,0.14,6.81,0.2 c1.24,0.06,3.65,2.18,3.77,5.36c0.12,3.18-2.06,5.18-4.24,5.42c-2.18,0.24-10.36,0-10.36,0L109.35,56.36z" fill="#474C4F"/>
  <path d="M104.49,61.72l9.19-0.41c0,0,3.43,5.45,3,23.89c-0.41,17.51-4.93,24.35-8.93,25.32 s-19.1,2.46-43.02,2.6c-23.92,0.14-41.69-1.23-45.11-2.05s-7.12-5.88-7.52-9.57c-0.61-5.66-0.65-13.27-0.38-24.07 s2.62-16.22,2.62-16.22L104.49,61.72z" fill="#474C4F"/>
  <path d="M26.81,92.19c-5.18-0.86-12.7-4.12-13.27-1.72c-0.57,2.4,1.72,5.26,7.21,7.09s18.07,3.2,44.49,2.63 c26.42-0.57,35.34-1.26,40.6-2.74c5.26-1.49,11.32-5.49,9.38-7.78c-1.94-2.29-7.09,1.03-11.78,1.94c-4.69,0.91-22.31,1.4-38.54,1.72 C47.29,93.67,32.3,93.1,26.81,92.19z" fill="#858585"/>
  <path d="M47.63,88.54c-2.09,0.1-5.03-1.01-6.27-4.25c-1.24-3.25-1.39-5.18-1.01-6.88 c0.39-1.7,1.55-2.32,4.25-2.55c2.71-0.23,7.97-0.62,19.26-0.7c11.3-0.08,19.11,0.15,21.12,0.39c2.01,0.23,3.17,0.93,2.86,3.02 s-1.39,6.27-2.24,8.28c-0.62,1.47-2.55,2.55-5.11,2.63C77.95,88.54,49.26,88.46,47.63,88.54z" fill="#2F2F2F"/>
  <path d="M114.84,76.18c-0.97-0.57-22.5,0.29-23.19,0.91c-0.7,0.62-4.43,8.32-2.55,9.05 c1.78,0.7,25.05,0.33,25.82-0.06C116.12,85.48,115.76,76.72,114.84,76.18z" fill="#FEA826"/>
  <path d="M36.57,77.17c-1.71-0.45-22.93-0.94-23.86,0.06c-0.41,0.44-0.31,6.81-0.23,7.97 c0.08,1.16,0.97,1.56,2.51,1.64c1.55,0.08,21.35,0.23,22.66,0.08s1.62-1.47,1.39-2.63C38.81,83.12,38.04,77.56,36.57,77.17z" fill="#FEA826"/>
  <path d="M37.88,27.66c0.15-0.93,0.23-7.5,0.23-7.5l6.73,0.93l-0.23,6.03L37.88,27.66z" fill="#474C4F"/>
  <polygon points="55.68,21.79 55.83,26.5 74.86,26.5 75.01,21.94 " fill="#474C4F"/>
  <path d="M84.99,21.63c0,1.16,0,6.11,0,6.11l6.27,0.15l-0.39-6.5L84.99,21.63z" fill="#474C4F"/>
  <polygon points="56.45,12.89 74.63,12.89 77.95,18.85 74.47,23.18 56.45,23.18 52.97,17.76 " fill="#CECECF"/>
  <path d="M35.41,21.17c0,1.01,0.08,1.78,1.08,1.86c1.01,0.08,19.96,0.15,19.96,0.15V12.89c0,0-17.25,0-18.49,0 c-1.24,0-2.55,1.47-2.55,2.63C35.41,17.14,35.41,21.17,35.41,21.17z" fill="#0F64C7"/>
  <path d="M74.63,12.89c0,0,15.62,0.23,16.71,0.39s2.17,1.47,2.32,3.02c0.15,1.55-0.15,5.34-0.15,6.03 s-0.89,1.11-2.35,1.11c-1.47,0-16.67-0.26-16.67-0.26L74.63,12.89z" fill="#DD0C26"/>
  <path d="M14.31,61.21c0.17-0.32,2.23-1.05,3.47-3.23c0.87-1.53,3.4-9.75,6.73-16.32s4.72-9.44,5.65-10.91 c0.93-1.47,2.32-2.63,4.72-3.33c2.4-0.7,10.76-2.59,30.87-2.2s25.21,0.99,27.17,1.62c1.58,0.5,4.54,2.05,6.47,5.61 c1.93,3.56,10.12,21.83,10.9,23.45c0.77,1.62,3.4,5.39,3.4,5.39s-6.95,7.23-23.19,9.11c-14.6,1.69-35.8,3.2-57.69-0.58 C15.63,66.88,14.14,61.53,14.31,61.21z" fill="#E3E4DE"/>
  <path d="M32.16,33.46c-1.78,1.78-5.79,10.58-7.78,15.64s-3.16,9.22-0.45,9.31s28.48-0.27,39.88-0.36 s38.61,0.54,40.6,0.54c1.99,0,3.16-1.72,2.26-3.89c-0.9-2.17-7.6-17-9.13-19.44c-1.54-2.44-3.71-3.26-7.51-3.44s-18-0.99-27.76-0.99 S33.79,31.84,32.16,33.46z" fill="#2D2E35"/>
  <path d="M26.11,54.21c0.39,0.59,24.86-0.48,39.6-0.21s34.45,0.72,35.45,0.63c0.99-0.09,1.09-1.54,0.99-1.99 c-0.09-0.45-1.81-3.98-1.81-3.98s-8.95-10.13-9.68-10.13c-0.72,0-26.04,1.63-26.04,1.63l-28.48-0.81l-8.59,10.6 C27.55,49.95,25.93,53.94,26.11,54.21z" fill="#96C8ED"/>
  <path d="M27.55,49.95c0,0,3.99-9.55,5.6-11.97c0.63-0.94,1.09-1.81,3.26-2.08s13.38-1.9,28.39-1.63 s23.69,0.87,25.5,0.99c2.14,0.14,3.62,0.9,4.43,2.26c0.81,1.36,6.51,13.02,6.51,13.02l-9.2-0.84c0,0-0.06-4.24-0.2-5.7 c-0.12-1.26-0.71-2.3-2.64-2.41c-1.72-0.09-5.52-0.18-6.78-0.09c-1.27,0.09-2.13,1.14-2.38,2.94c-0.25,1.81-0.51,5.04-0.51,5.04 l-28.49,0.17c0,0,0-4.46-0.26-6.07c-0.19-1.16-0.92-1.92-2.41-1.91c-1.73,0.01-5.01-0.17-7.36,0.1c-1.09,0.13-1.9,1.45-1.99,3.35 c-0.07,1.37-0.18,4.43-0.18,4.43L27.55,49.95z" fill="#AFE3FB"/>
</svg>

<svg viewBox="0 0 128 128" xmlns="http://www.w3.org/2000/svg">
  <defs/>
  <path d="M27.44,102.2 L12.81,100.18 C12.81,100.18 12.72,118.86 12.63,120.61 C12.54,122.36 13.55,123.63 15.02,123.74 C17.6,123.92 22.47,123.92 24.22,123.83 C25.97,123.74 27.16,122.45 27.26,120.79 C27.36,119.13 27.26,109.2 27.26,109.2 L27.44,102.2 Z" fill="#4E433D"/>
  <path d="M97.92,108.45 C97.92,108.45 97.83,119.12 97.83,121.24 C97.83,123.36 99.03,124.46 100.41,124.37 C101.79,124.28 108.42,124.37 109.89,124.37 C111.36,124.37 113.02,122.99 113.02,120.97 C113.02,118.95 113.3,100.91 113.3,100.91 L97.92,108.45 Z" fill="#4E433D"/>
  <path d="M19.61,55.86 L16.27,56.07 C16.27,56.07 16.37,52.8 16.14,51.62 C15.91,50.44 14.49,49.74 13.43,49.68 C12.37,49.62 7.42,49.62 6.01,49.8 C4.6,49.98 2.18,51.39 2.24,54.98 C2.3,58.57 4.6,60.57 6.54,60.52 C8.48,60.47 13.18,60.62 14.61,60.58 C16.44,60.52 20.44,60.7 20.44,60.7 L19.61,55.86 Z" fill="#474C4F"/>
  <path d="M109.35,56.36 L112.36,56.44 C112.36,56.44 112.43,52.82 112.84,51.7 C113.25,50.58 114.08,49.98 115.96,49.98 C117.84,49.98 121.53,50.12 122.77,50.18 C124.01,50.24 126.42,52.36 126.54,55.54 C126.66,58.72 124.48,60.72 122.3,60.96 C120.12,61.2 111.94,60.96 111.94,60.96 L109.35,56.36 Z" fill="#474C4F"/>
  <path d="M104.49,61.72 L113.68,61.31 C113.68,61.31 117.11,66.76 116.68,85.2 C116.27,102.71 111.75,109.55 107.75,110.52 C103.75,111.49 88.65,112.98 64.73,113.12 C40.81,113.26 23.04,111.89 19.62,111.07 C16.2,110.25 12.5,105.19 12.1,101.5 C11.49,95.84 11.45,88.23 11.72,77.43 C11.99,66.63 14.34,61.21 14.34,61.21 L104.49,61.72 Z" fill="#474C4F"/>
  <path d="M26.81,92.19 C21.63,91.33 14.11,88.07 13.54,90.47 C12.97,92.87 15.26,95.73 20.75,97.56 C26.24,99.39 38.82,100.76 65.24,100.19 C91.66,99.62 100.58,98.93 105.84,97.45 C111.1,95.96 117.16,91.96 115.22,89.67 C113.28,87.38 108.13,90.7 103.44,91.61 C98.75,92.52 81.13,93.01 64.9,93.33 C47.29,93.67 32.3,93.1 26.81,92.19 Z" fill="#858585"/>
  <path d="M47.63,88.54 C45.54,88.64 42.6,87.53 41.36,84.29 C40.12,81.04 39.97,79.11 40.35,77.41 C40.74,75.71 41.9,75.09 44.6,74.86 C47.31,74.63 52.57,74.24 63.86,74.16 C75.16,74.08 82.97,74.31 84.98,74.55 C86.99,74.78 88.15,75.48 87.84,77.57 C87.53,79.66 86.45,83.84 85.6,85.85 C84.98,87.32 83.05,88.4 80.49,88.48 C77.95,88.54 49.26,88.46 47.63,88.54 Z" fill="#2F2F2F"/>
  <path d="M114.84,76.18 C113.87,75.61 92.34,76.47 91.65,77.09 C90.95,77.71 87.22,85.41 89.1,86.14 C90.88,86.84 114.15,86.47 114.92,86.08 C116.12,85.48 115.76,76.72 114.84,76.18 Z" fill="#FEA826"/>
  <path d="M36.57,77.17 C34.86,76.72 13.64,76.23 12.71,77.23 C12.3,77.67 12.4,84.04 12.48,85.2 C12.56,86.36 13.45,86.76 14.99,86.84 C16.54,86.92 36.34,87.07 37.65,86.92 C38.96,86.77 39.27,85.45 39.04,84.29 C38.81,83.12 38.04,77.56 36.57,77.17 Z" fill="#FEA826"/>
  <path d="M37.88,27.66 C38.03,26.73 38.11,20.16 38.11,20.16 L44.84,21.09 L44.61,27.12 L37.88,27.66 Z" fill="#474C4F"/>
  <path d="M55.68,21.79 L55.83,26.5 L74.86,26.5 L75.01,21.94 Z" fill="#474C4F"/>
  <path d="M84.99,21.63 C84.99,22.79 84.99,27.74 84.99,27.74 L91.26,27.89 L90.87,21.39 L84.99,21.63 Z" fill="#474C4F"/>
  <path d="M56.45,12.89 L74.63,12.89 L77.95,18.85 L74.47,23.18 L56.45,23.18 L52.97,17.76 Z" fill="#CECECF"/>
  <path d="M35.41,21.17 C35.41,22.18 35.49,22.95 36.49,23.03 C37.5,23.11 56.45,23.18 56.45,23.18 L56.45,12.89 C56.45,12.89 39.2,12.89 37.96,12.89 C36.72,12.89 35.41,14.36 35.41,15.52 C35.41,17.14 35.41,21.17 35.41,21.17 Z" fill="#0F64C7"/>
  <path d="M74.63,12.89 C74.63,12.89 90.25,13.12 91.34,13.28 C92.43,13.44 93.51,14.75 93.66,16.3 C93.81,17.85 93.51,21.64 93.51,22.33 C93.51,23.02 92.62,23.44 91.16,23.44 C89.69,23.44 74.49,23.18 74.49,23.18 L74.63,12.89 Z" fill="#DD0C26"/>
  <path d="M14.31,61.21 C14.48,60.89 16.54,60.16 17.78,57.98 C18.65,56.45 21.18,48.23 24.51,41.66 C27.84,35.09 29.23,32.22 30.16,30.75 C31.09,29.28 32.48,28.12 34.88,27.42 C37.28,26.72 45.64,24.83 65.75,25.22 C85.86,25.61 90.96,26.21 92.92,26.84 C94.5,27.34 97.46,28.89 99.39,32.45 C101.32,36.01 109.51,54.28 110.29,55.9 C111.06,57.52 113.69,61.29 113.69,61.29 C113.69,61.29 106.74,68.52 90.5,70.4 C75.9,72.09 54.7,73.6 32.81,69.82 C15.63,66.88 14.14,61.53 14.31,61.21 Z" fill="#E3E4DE"/>
  <path d="M32.16,33.46 C30.38,35.24 26.37,44.04 24.38,49.1 C22.39,54.16 21.22,58.32 23.93,58.41 C26.64,58.5 52.41,58.14 63.81,58.05 C75.21,57.96 102.42,58.59 104.41,58.59 C106.4,58.59 107.57,56.87 106.67,54.7 C105.77,52.53 99.07,37.7 97.54,35.26 C96,32.82 93.83,32 90.03,31.82 C86.23,31.64 72.03,30.83 62.27,30.83 C52.51,30.83 33.79,31.84 32.16,33.46 Z" fill="#2D2E35"/>
  <path d="M26.11,54.21 C26.5,54.8 50.97,53.73 65.71,54 C80.45,54.27 100.16,54.72 101.16,54.63 C102.15,54.54 102.25,53.09 102.15,52.64 C102.06,52.19 100.34,48.66 100.34,48.66 C100.34,48.66 91.39,38.53 90.66,38.53 C89.94,38.53 64.62,40.16 64.62,40.16 L36.14,39.35 L27.55,49.95 C27.55,49.95 25.93,53.94 26.11,54.21 Z" fill="#96C8ED"/>
  <path d="M27.55,49.95 C27.55,49.95 31.54,40.4 33.15,37.98 C33.78,37.04 34.24,36.17 36.41,35.9 C38.58,35.63 49.79,34 64.8,34.27 C79.81,34.54 88.49,35.14 90.3,35.26 C92.44,35.4 93.92,36.16 94.73,37.52 C95.54,38.88 101.24,50.54 101.24,50.54 L92.04,49.7 C92.04,49.7 91.98,45.46 91.84,44 C91.72,42.74 91.13,41.7 89.2,41.59 C87.48,41.5 83.68,41.41 82.42,41.5 C81.15,41.59 80.29,42.64 80.04,44.44 C79.79,46.25 79.53,49.48 79.53,49.48 L51.04,49.65 C51.04,49.65 51.04,45.19 50.78,43.58 C50.59,42.42 49.86,41.66 48.37,41.67 C46.64,41.68 43.36,41.5 41.01,41.77 C39.92,41.9 39.11,43.22 39.02,45.12 C38.95,46.49 38.84,49.55 38.84,49.55 L27.55,49.95 Z" fill="#AFE3FB"/>
</svg>
